symbols/web/edit_road/materialsymbolsoutlined/edit_road_wght600grad200_20px.svg

<svg xmlns="http://www.w3.org/2000/svg" height="20" width="20"><path d="M14.833 10.688V2.667h2.646v5.375ZM1.5 17.167v-14.5h2.625v14.5ZM8.146 6.646V2.667h2.646v3.979Zm0 5.25V7.938h2.646v3.958Zm0 5.271v-3.979h2.646v3.979Zm12.562-4.688-2.604-2.604 1.146-1.104q.25-.25.615-.25.364 0 .593.25l1.375 1.354q.25.229.25.594 0 .364-.25.635Zm-7.27 4.688v-2.605l4.041-4.02 2.583 2.562-4.041 4.063Z"/></svg>

<svg xmlns="http://www.w3.org/2000/svg" height="20" width="20"><path d="M14.833 10.688V2.667H17.479V8.042ZM1.5 17.167V2.667H4.125V17.167ZM8.146 6.646V2.667H10.792V6.646ZM8.146 11.896V7.938H10.792V11.896ZM8.146 17.167V13.188H10.792V17.167ZM20.708 12.479 18.104 9.875 19.25 8.771Q19.5 8.521 19.865 8.521Q20.229 8.521 20.458 8.771L21.833 10.125Q22.083 10.354 22.083 10.719Q22.083 11.083 21.833 11.354ZM13.438 17.167V14.562L17.479 10.542L20.062 13.104L16.021 17.167Z"/></svg>
